X:1
T:Black Pat's
C:Tommy Peoples
M:4/4
K:F
   [CF]2 Ac    dA cA | Gc{c} AG    FD CD     | F2     A/B/c dc AG |  Ac    fa    ga/g/ fg  |
   af    f/f/f gf ef | cd    fd    cA GA     | F2     A/B/c dA cA |  Gc{c} AG    FD    CD :|
   F3    G{G}F DC D  | F     EF    GA dd/d/d | c2     AF    cF AF |  Gc{c} AG    FD    CD  |
   FE    FG{G} FD CD | FE    FG    Ac fg     | af     f/f/f gf df |  cf    ag    fc    df  |
   [Fc]3 A{B}  AG FD | CF    F/F/F Ad d/d/d  | c2     AF    cF AF |  Gc{c} AG    FD    CD  |
   FE    FG{G} FD CD | FE    FG    Ac fg     | af     f/f/f gf df |  cf    ag    f2    fg ||
|: a2{b} af    df cd | fd    cA    F4        | [cfa]2 fc    ac fc |  dg    g/g/g ga    fg  |
   a2{b} af    df cd | fd    cA    cd fg     | a/g/f  gf    df cA |1 Gc{c} AG    FG    Ac :|2 Gc{c} AG FD CD | [CF]8 |]



